X: 32069
T: Peninsula Man
R: reel
M: 4/4
K: Eminor
B,DFG E2Ed|BEEB dEBc|AGFG ADDF|ADAB BcBA|
B2AB GE~E2|BccB AGFB|dA B/^c/d efeB|1 c/B/A BG AGFD:|2 c/B/A BG AGFB||
eBeg fBBf|fgfd edBA|GABG FD (3DDD|^cddA BAFB|
~e3f g/f/e fg|a2 g/f/e fdBA|GABG FDD^c|1 dBAB GEEB:|2 dBAB GEED||

